Adwaita++-Dark/status/symbolic/semi-starred-symbolic-rtl.svg

<svg height="16" width="16" xmlns="http://www.w3.org/2000/svg">
  <g fill="#e6ddff">
    <path d="m8 0 2.12 5.88 5.88.32-4.57 3.71 1.51 6.09-4.94-3.6-4.94 3.6 1.51-6.09-4.57-3.71 5.88-.32z" opacity=".3"/>
    <path d="m8 0 2.12 5.88 5.88.32-4.57 3.71 1.51 6.09-4.94-3.6z"/>
  </g>
</svg>

<svg xmlns="http://www.w3.org/2000/svg" width="16" height="16" version="1.1">
 <path style="opacity:0.3;fill:#E6DDFF" d="M 8,0 10.12,5.88 16,6.2 11.43,9.91 12.94,16 8,12.4 3.06,16 4.57,9.91 0,6.2 5.88,5.88 Z"/>
 <path d="M 8,0 10.12,5.88 16,6.2 11.43,9.91 12.94,16 8,12.4 Z" style="fill:#E6DDFF"/>
</svg>
